assets/img/braze_icons/heart-rounded.svg

<svg fill="none" height="24" viewBox="0 0 24 24" width="24" xmlns="http://www.w3.org/2000/svg"><path clip-rule="evenodd" d="m1 9.48c0-3.50889 2.65774-7.48 6.88889-7.48 1.82704 0 3.17721.7105 4.11111 1.51082.9339-.80032 2.2841-1.51082 4.1111-1.51082 4.2312 0 6.8889 3.97111 6.8889 7.48 0 1.8454-.7146 3.5497-1.707 5.0291-.9932 1.4806-2.3006 2.7908-3.5819 3.8707-1.285 1.0831-2.5714 1.9574-3.5475 2.5613-.4887.3024-.904.5396-1.2078.7036-.1511.0816-.2796.1477-.3787.1957-.0482.0233-.0984.0467-.1452.0664-.0221.0093-.056.0231-.0951.0363-.0191.0065-.0514.017-.0912.0268-.0254.0063-.1219.0301-.2456.0301s-.2195-.0237-.2449-.0299c-.0398-.0099-.0728-.0205-.0919-.027-.0391-.0132-.073-.027-.0951-.0363-.0468-.0197-.097-.0431-.1452-.0664-.0991-.048-.2276-.1141-.3787-.1957-.3038-.164-.7191-.4012-1.20783-.7036-.9761-.6039-2.26242-1.4782-3.54748-2.5613-1.28131-1.0799-2.58867-2.3901-3.58186-3.8707-.99239-1.4794-1.70703-3.1837-1.70703-5.0291z" fill="#801ed7" fill-rule="evenodd"/></svg>

<svg width="24" height="24" viewBox="0 0 24 24" fill="none" xmlns="http://www.w3.org/2000/svg">
<path fill-rule="evenodd" clip-rule="evenodd" d="M1 9.48C1 5.97111 3.65774 2 7.88889 2C9.71593 2 11.0661 2.7105 12 3.51082C12.9339 2.7105 14.2841 2 16.1111 2C20.3423 2 23 5.97111 23 9.48C23 11.3254 22.2854 13.0297 21.293 14.5091C20.2998 15.9897 18.9924 17.2999 17.7111 18.3798C16.4261 19.4629 15.1397 20.3372 14.1636 20.9411C13.6749 21.2435 13.2596 21.4807 12.9558 21.6447C12.8047 21.7263 12.6762 21.7924 12.5771 21.8404C12.5289 21.8637 12.4787 21.8871 12.4319 21.9068C12.4098 21.9161 12.3759 21.9299 12.3368 21.9431C12.3177 21.9496 12.2854 21.9601 12.2456 21.9699C12.2202 21.9762 12.1237 22 12 22C11.8763 22 11.7805 21.9763 11.7551 21.9701C11.7153 21.9602 11.6823 21.9496 11.6632 21.9431C11.6241 21.9299 11.5902 21.9161 11.5681 21.9068C11.5213 21.8871 11.4711 21.8637 11.4229 21.8404C11.3238 21.7924 11.1953 21.7263 11.0442 21.6447C10.7404 21.4807 10.3251 21.2435 9.83637 20.9411C8.86027 20.3372 7.57395 19.4629 6.28889 18.3798C5.00758 17.2999 3.70022 15.9897 2.70703 14.5091C1.71464 13.0297 1 11.3254 1 9.48Z" fill="#801ED7"/>
</svg>
